icons/folder-lefthook.svg

<svg xmlns="http://www.w3.org/2000/svg" viewBox="0 0 32 32"><path d="M13.845,7.53312,12.55688,6.46063a1.99935,1.99935,0,0,0-1.28-.46376H4a2.00039,2.00039,0,0,0-2.00063,2V23.99875A2.00052,2.00052,0,0,0,4,25.99937H28.00312a2.00038,2.00038,0,0,0,2-2.00062V9.99687a2.00025,2.00025,0,0,0-2-2H15.125A1.99917,1.99917,0,0,1,13.845,7.53312Z" style="fill:#607d8b"/><path d="M14,20v6H10Zm4.02563-5.34192-2.385.795a1.49448,1.49448,0,0,0-.86688,2.09376L15.3075,18.615l4.69622-1.62378c.0138-.2937-.00372-.60248-.00372-.91A1.49644,1.49644,0,0,0,18.02563,14.65808ZM30.91216,20.16l-5.54581-5.18023C24.27166,13.99878,23.84953,14,22,14v3.0119a3.361,3.361,0,0,1-1.30127,2.78748L24,24l5.87634,1.67555c.6053-.698.84986-1.00459,1.37945-1.59431A2.58274,2.58274,0,0,0,30.91216,20.16Z" style="fill:#f44336"/><path d="M10,26l4-2,4,2-4,2Zm10.69873-6.20062a19.76172,19.76172,0,0,1-2.46246,1.31469A3.49422,3.49422,0,0,1,16,21.41632V22.7547l8.98065,4.88794a3.2174,3.2174,0,0,0,4.05383-.999c.33289-.38422.50458-.58307.84186-.96808ZM15.5725,17.91l3.75562-1.40813a.49865.49865,0,0,1,.675.49251,1.47908,1.47908,0,0,1-.83187,1.42l-1.82937.915C15.9425,20.02875,14.62375,18.26625,15.5725,17.91Z" style="fill:#b71c1c"/></svg>

<svg xmlns="http://www.w3.org/2000/svg" viewBox="0 0 32 32"><path d="M13.845 7.533l-1.288-1.072a2 2 0 00-1.28-.464H4a2 2 0 00-2 2v16.002a2 2 0 002 2h24.003a2 2 0 002-2V9.997a2 2 0 00-2-2H15.125a2 2 0 01-1.28-.464z" fill="#607d8b"/><path d="M14 20v6h-4zm4.026-5.342l-2.385.795a1.494 1.494 0 00-.867 2.094l.534 1.068 4.696-1.624c.014-.293-.004-.602-.004-.91a1.496 1.496 0 00-1.974-1.423zm12.886 5.502l-5.546-5.18C24.272 13.999 23.85 14 22 14v3.012a3.361 3.361 0 01-1.301 2.787L24 24l5.876 1.676c.606-.698.85-1.005 1.38-1.595a2.583 2.583 0 00-.344-3.921z" fill="#f44336"/><path d="M10 26l4-2 4 2-4 2zm10.699-6.2a19.762 19.762 0 01-2.463 1.314 3.494 3.494 0 01-2.236.302v1.339l8.98 4.888a3.217 3.217 0 004.054-1c.333-.384.505-.582.842-.967zm-5.127-1.89l3.756-1.408a.499.499 0 01.675.492 1.48 1.48 0 01-.832 1.42l-1.83.915c-1.399.7-2.717-1.063-1.769-1.419z" fill="#b71c1c"/></svg>
